packages/components/src/product-icon/images/jetpack-search-v2-darkblue.svg

<svg width="55" height="56" viewBox="0 0 55 56" fill="none" xmlns="http://www.w3.org/2000/svg">
<circle cx="27.5" cy="27.6382" r="27.5" fill="#055d9c"/>
<mask id="mask0" mask-type="alpha" maskUnits="userSpaceOnUse" x="17" y="17" width="22" height="22">
<path fill-rule="evenodd" clip-rule="evenodd" d="M32.487 30.2918L38.5 36.3048L36.1667 38.6382L30.1537 32.6252C28.8657 33.4745 27.3245 33.9715 25.6667 33.9715C21.1563 33.9715 17.5 30.3152 17.5 25.8048C17.5 21.2945 21.1563 17.6382 25.6667 17.6382C30.177 17.6382 33.8333 21.2945 33.8333 25.8048C33.8333 27.4627 33.3363 29.0038 32.487 30.2918ZM25.6667 19.9715C22.4502 19.9715 19.8333 22.5884 19.8333 25.8049C19.8333 29.0214 22.4502 31.6382 25.6667 31.6382C28.8832 31.6382 31.5 29.0214 31.5 25.8049C31.5 22.5884 28.8832 19.9715 25.6667 19.9715Z" fill="white"/>
</mask>
<g mask="url(#mask0)">
<rect x="14" y="14.1382" width="28" height="28" fill="white"/>
</g>
</svg>

<svg width="55" height="56" fill="none" xmlns="http://www.w3.org/2000/svg"><circle cx="27.5" cy="27.638" r="27.5" fill="#055d9c"/><mask id="a" maskUnits="userSpaceOnUse" x="17" y="17" width="22" height="22"><path fill-rule="evenodd" clip-rule="evenodd" d="M32.487 30.292l6.013 6.013-2.333 2.333-6.013-6.013a8.124 8.124 0 01-4.487 1.346 8.167 8.167 0 118.166-8.166 8.123 8.123 0 01-1.346 4.487zm-6.82-10.32a5.84 5.84 0 00-5.834 5.833 5.84 5.84 0 005.834 5.833 5.84 5.84 0 005.833-5.833 5.84 5.84 0 00-5.833-5.834z" fill="#fff"/></mask><g mask="url(#a)"><path fill="#fff" d="M14 14.138h28v28H14z"/></g></svg>
